X:1
T:Giga - Recorder Quartet
T:Giga - Recorder Quartet
T:from "Sonate da Camera a Tre" 1685
T:Arcangelo Corelli
C:Arcangelo Corelli
%%score 1 2 3 4
L:1/8
Q:1/4=80
M:3/8
K:G
V:1 treble+8 nm="S" snm="S"
V:2 treble nm="A" snm="A"
V:3 treble nm="T" snm="T"
V:4 bass+8 nm="B" snm="B"
V:1
 D2 D | GBG | AcA | B3 | A3 | GBG | AdF | GAB | AGF | G3 | BG/A/B | AFA | GEG | FDA | BGB | ^cAd | %16
 G E2 | D2 F | B2 B | G2 G | cBc | A3 | d3 | B2 B | cBc | A3 | dcB | ADB | B A2 | G2 D | EEG | %31
 FDG | GAF | G3 :: z3 | z3 | d2 d | ABG | FEF | BAB | G3 | BAG | F2 G | G F2 | E3 | ABc | ^GEc | %47
 c B2 | A3 | AEA | FDF | dA=c | B3 | d3 | G3 | e3 | A3 | G3- | GFG | A3- | AGA | B3- | BAB | c3- | %64
 cBA | dcB | A2 B | B A2 | G2 D | EEG | FDG | GAF | G3 :| %73
V:2
 z3 | z3 | agf | gdB | cef | gde | fad | efg | f2 d | B3 | d2 d | dAd | de/d/^c | d2 d | dBg | %15
 efd | d2 ^c | d2 d | g2 g | e2 e | aga | d3 | b3 | g2 g | ede | f3 | bag | f2 g | g2 f | B2 d | %30
 c2 e | d2 e | c2 d | d3 :: b2 b | fge | d3 | e3 | d3 | f3 | e3- | efe | ^dBe | e2 ^d | e3 | edc | %46
 B2 A | a2 ^g | e3 | e3 | d3 | a3 | gdg- | gd=f | ede- | eag | fed- | dcB | e3- | e3 | fef | fed | %62
 g3- | gfe | f3 | g3 | efg | g2 f | B2 d | c2 e | d2 e | e2 d | d3 :| %73
V:3
 z3 | z3 | FEF | GBG | AcA | BGE | FAB | GAB | c2 A | B3 | GE/F/G | FDF | BAE | A F2 | GEG | A^cB | %16
 B A2 | F2 A | z2 d | c2 c | AGA | F3 | FBc/d/ | e2 e | AGA/G/ | F3 | G3 | FBG | Bcd | D2 G | %30
 G2 c | AFG | EFA | B3 :: z3 | z3 | B2 B | ^c2 B | AGA | ^dcd | B2 c | B2 c | B3- | B3 | G3 | ABA | %46
 ^G2 A | A B2 | c2 c | ^cAc | AFA | BcA | G3 | B3 | e3 | ^c3 | F3 | GAB | c3- | cd^c | d3 | dcd | %62
 c2 d | e3- | edc | GAB | c2 d | d d2 | B2 F | G3 | ABc | c2 A | B3 :| %73
V:4
 z3 | z3 | z3 | G,,3 | A,,3 | B,,2 C, | D,3 | C,3 | D,2 F, | G,2 D, | G,,3 | F,3 | E,3 | D,2 F, | %14
 G,2 G, | A,2 F, | G, A,2 | D,3 | z2 G,, | C,2 C, | A,,2 A,, | D,C,D, | B,,2 G,, | E,3 | C,3 | %25
 D,3 | B,,2 C, | D,B,,C, | D,C,D, | G,,2 B,, | C,2 C, | D,B,,C, | A,,2 D, | G,,3 :: G,2 G, | %35
 D,E,C, | B,,3 | ^C,3 | D,3 | ^D,3 | E,2 E, | G,,2 A,, | B,,2 A,, | B,,3 | E,2 =D, | C,3 | D,3 | %47
 E,3 | A,,B,,C, | ^C,3 | D,3 | D,E,F, | G,3 | B,,3 | C,3 | A,,B,,^C, | D,3 | B,,A,,G,, | C,3- | %59
 C,B,,A,, | D,3- | D,C,B,, | E,3- | E,D,C, | D,3 | B,,A,,G,, | C,3 | D,3 | G,,2 B,, | C,2 C, | %70
 D,3 | A,,2 D, | G,3 :| %73

